X:3
T:Gan Ainm
T:Colonel Rodney
R:reel
S: Nigel Gatherer <gatherer@argonet.co.uk> scots-l 2002-11-4
Z:Larry Sanger from a tape of a tape of a tape...of John Doherty.
Z:In this performance John varied the tune remarkably little, but
Z:played just 2.5 times.
M:4/4
K:A
d|:cA A/A/A eAcd|eaga fedc|dB B/B/B fBde|fefg afed|
cA A/A/A eAcd|eaga fedc|defg abaf|1 e/f/g ae cAAd:|2 e/f/g ae cAAf||
|:e/f/e ce Aece|aAgA fe^de|f/g/f ^df Bfdf|bBaB gBf^d|
e/f/e ce Aece|aAgA fAec|dcde fgaf|1 e/f/g ae cAAf:|2 e/f/g ae cAAd||
